public/assets/images/icons/blue/cellphone.svg

<svg xmlns="http://www.w3.org/2000/svg" viewBox="0 0 16 16" enable-background="new 0 0 16 16"><path fill="#24437C" d="M11 1h-6c-.55 0-1 .45-1 1v12c0 .55.45 1 1 1h6c.55 0 1-.45 1-1v-12c0-.55-.45-1-1-1zm-3 12.969c-.552 0-1-.448-1-1s.448-1 1-1 1 .448 1 1-.448 1-1 1zm3-3h-6v-8.969h6v8.969z"/></svg>

<?xml version="1.0"?><!DOCTYPE svg PUBLIC "-//W3C//DTD SVG 1.1//EN" "http://www.w3.org/Graphics/SVG/1.1/DTD/svg11.dtd"><svg width="16px" height="16px" xmlns="http://www.w3.org/2000/svg" viewBox="0 0 16 16" shape-rendering="geometricPrecision" fill="#24437c"><g><path d="M11,1H5C4.45,1,4,1.45,4,2v8.969V14c0,0.55,0.45,1,1,1h6c0.55,0,1-0.45,1-1v-3.031V2 C12,1.45,11.55,1,11,1z M8,13.969c-0.552,0-1-0.448-1-1c0-0.552,0.448-1,1-1c0.552,0,1,0.448,1,1C9,13.521,8.552,13.969,8,13.969z M11,10.969H5V2h6V10.969z"/></g></svg>
